X:5018
T:Boxing Day in Kane's
M:6/8
L:1/8
Q:180
C:Aidan Crossey
R:Jig
K:D
|:A2A BAG|A2D EFG| A2z4|z6|
A2A BAG|A2D EFE|D2z4|z6 :||
d2e fed|a2f dcd|e2z4|z6|
d2e fed|B2A FEF|D2z4|z6|
d2e fed|a2f dcd|efe efe|f3 g3|
agf gfe|fed edc|BdB AFE|D3 z3||
